X: 100207
T: Jimmy Mac's (reel)
N: 093
C: BB
N: minor revisions/renamed 1/2/07
R: reel
Q: 1/8=360
M: 4/4
L: 1/8
K: D
A | "Bm"dBAF ABBF | "D"ABde fafe | "Bm"dBAF ABAF | "D"BdAF "A"E3 A |
"Bm"dBAF ABBF | "D"ABde fdef |"G"gfeg "Bm"fedf | "A"ecAc "D"d3 :|
D|"Bm"B,FFD "A"CEEC|"D"DFAd BAFD|"Bm"B,F F2 "A"A,E E2|"Bm"DB,A,B, D3 A,|
"Bm"B,FFD "A"CEEC| "D"DFAd BAFA |"G"BAGB "D"AFDF |"A"EDCE "D"D3 :|
e | "D"affa "Bm"bfef | "D"afed "Em"effg |"D"af ~f2 "Bm"bafe |"D"defd "A"e2 fg |
"D"affa "Bm"bf ~f2 |"D"afed "Em"edBc |"Bm"dBAF ABAF |"A"EDCE "D"D3 :|
